**kern	**kern	**dynam
*part1	*part1	*part1
*staff2	*staff1	*
*I"Piano	*	*
*clefF4	*clefG2	*
*k[b-e-a-d-]	*k[b-e-a-d-]	*
=1	=1	=1
*^	*^	*
8r	4.AA-	8.fL	4.c-X 4.dn	.
!	!	!LO:TX:b:i:t=dim.	!	!
(8A-L	.	.	.	.
.	.	16gK	.	.
8FJ)	.	8a-J	.	.
=	=	=	=	=
!	!	!LO:TX:b:i:t=rit.	!	!
8r	4.AA-	4b-^	4.d-X 4.g	.
(8GL	.	.	.	.
8E-J)	.	8ee-	.	.
=	=	=	=	=
8r	4.AA-	4bn^)	4.d- 4.g	.
(8GL	.	.	.	.
8E-J)	.	8ee-	.	.
*	*	*v	*v	*
=||	=||	=||	=||
!	!	!LO:TX:a:i:t=a tempo	!
8r	4.AA-	(4e- 4a- 4cc	mf
(8A-L	.	.	.
8E-J)	.	8g 8b- 8ee-	.
=	=	=	=
*	*	*^	*
8r	4.AA-	8.fL 8.dd-	4.g	.
(8B-L	.	.	.	.
.	.	16e-K 16cc	.	.
8E-J)	.	8d-J 8b-	.	.
*	*	*v	*v	*
=	=	=	=
8r	4.AA-	4e- 4a- 4cc	.
(8A-L	.	.	.
8E-J)	.	8g 8b- 8ee-	.
=	=	=	=
*	*	*^	*
8r	4.AA-	8.fL 8.dd-	4.g	.
(8B-L	.	.	.	.
.	.	16e-K 16cc	.	.
8E-J)	.	8d-J 8b-	.	.
*	*	*v	*v	*
=	=	=	=
8r	4.AA-	4e- 4a- 4cc	.
(8A-L	.	.	.
8E-J)	.	8c 8e- 8a-	.
*v	*v	*	*
=	=	=
*-	*-	*-
!!!system-decoration: {(s1,s2)}
